packages/assets/static/images/icons/export.svg

<svg width="24" height="24" viewBox="0 0 24 24" xmlns="http://www.w3.org/2000/svg">
<path d="M20.25 10.5001V19.5001C20.25 19.8979 20.092 20.2795 19.8107 20.5608C19.5294 20.8421 19.1478 21.0001 18.75 21.0001H5.25C4.85218 21.0001 4.47064 20.8421 4.18934 20.5608C3.90804 20.2795 3.75 19.8979 3.75 19.5001V10.5001C3.75 10.1023 3.90804 9.72075 4.18934 9.43944C4.47064 9.15814 4.85218 9.0001 5.25 9.0001H7.5C7.69891 9.0001 7.88968 9.07912 8.03033 9.21977C8.17098 9.36042 8.25 9.55119 8.25 9.7501C8.25 9.94901 8.17098 10.1398 8.03033 10.2804C7.88968 10.4211 7.69891 10.5001 7.5 10.5001H5.25V19.5001H18.75V10.5001H16.5C16.3011 10.5001 16.1103 10.4211 15.9697 10.2804C15.829 10.1398 15.75 9.94901 15.75 9.7501C15.75 9.55119 15.829 9.36042 15.9697 9.21977C16.1103 9.07912 16.3011 9.0001 16.5 9.0001H18.75C19.1478 9.0001 19.5294 9.15814 19.8107 9.43944C20.092 9.72075 20.25 10.1023 20.25 10.5001ZM8.78063 6.53073L11.25 4.06041V12.7501C11.25 12.949 11.329 13.1398 11.4697 13.2804C11.6103 13.4211 11.8011 13.5001 12 13.5001C12.1989 13.5001 12.3897 13.4211 12.5303 13.2804C12.671 13.1398 12.75 12.949 12.75 12.7501V4.06041L15.2194 6.53073C15.3601 6.67146 15.551 6.75052 15.75 6.75052C15.949 6.75052 16.1399 6.67146 16.2806 6.53073C16.4214 6.39 16.5004 6.19912 16.5004 6.0001C16.5004 5.80108 16.4214 5.61021 16.2806 5.46948L12.5306 1.71948C12.461 1.64974 12.3783 1.59443 12.2872 1.55668C12.1962 1.51894 12.0986 1.49951 12 1.49951C11.9014 1.49951 11.8038 1.51894 11.7128 1.55668C11.6217 1.59443 11.539 1.64974 11.4694 1.71948L7.71937 5.46948C7.57864 5.61021 7.49958 5.80108 7.49958 6.0001C7.49958 6.19912 7.57864 6.39 7.71938 6.53073C7.86011 6.67146 8.05098 6.75052 8.25 6.75052C8.44902 6.75052 8.63989 6.67146 8.78063 6.53073Z"/>
</svg>

<svg viewBox="0 0 24 24" xmlns="http://www.w3.org/2000/svg" aria-hidden="true" fill="currentColor"><path d="M20.25 10.5v9a1.5 1.5 0 0 1-1.5 1.5H5.25a1.5 1.5 0 0 1-1.5-1.5v-9A1.5 1.5 0 0 1 5.25 9H7.5a.75.75 0 0 1 0 1.5H5.25v9h13.5v-9H16.5a.75.75 0 1 1 0-1.5h2.25a1.5 1.5 0 0 1 1.5 1.5M8.78 6.53l2.47-2.47v8.69a.75.75 0 1 0 1.5 0V4.06l2.47 2.47a.75.75 0 1 0 1.06-1.06l-3.75-3.75a.75.75 0 0 0-1.06 0L7.72 5.47a.75.75 0 1 0 1.06 1.06"/></svg>
